X: 3566
T: Big Sciote
R: reel
M: 4/4
K: Gmajor
|:(3DEF|G2BG AGBG|AG2G G2dc|BAGB AGED|EG2A G2BA|
G2 GG B2d2|e3f e2(B2|B)AGB AGED|EG2A G2:|
|:ef|gfga bag2|a2b(a a4|a)bag ed2(e|e3 )f e3(g|
g2) gf edB2|e3f e4|gedB AGED|EG2A G2:|

